public/assets/images/network.svg

<svg width="24" height="24" fill="none" xmlns="http://www.w3.org/2000/svg"><g clip-path="url(#clip0_16163_41935)"><path d="M21 7a2.996 2.996 0 00-2.99 3.21l-2.03.68a4.468 4.468 0 00-3.22-2.32V6.41A3.018 3.018 0 0015 3.5c0-1.66-1.34-3-3-3s-3 1.34-3 3c0 1.4.96 2.57 2.25 2.91v2.16c-1.4.23-2.58 1.11-3.22 2.32l-2.04-.68C6 10.14 6 10.07 6 10c0-1.66-1.34-3-3-3s-3 1.34-3 3 1.34 3 3 3c1.06 0 1.98-.55 2.52-1.37l2.03.68c-.2 1.29.17 2.66 1.09 3.69l-1.41 1.77c-.38-.18-.79-.27-1.23-.27-1.66 0-3 1.34-3 3s1.34 3 3 3 3-1.34 3-3c0-.68-.22-1.3-.6-1.8l1.41-1.77c1.36.76 3.02.75 4.37 0l1.41 1.77c-.37.5-.59 1.12-.59 1.8 0 1.66 1.34 3 3 3s3-1.34 3-3-1.34-3-3-3c-.44 0-.85.09-1.23.26l-1.41-1.77a4.49 4.49 0 001.09-3.69l2.03-.68c.53.82 1.46 1.37 2.52 1.37 1.66 0 3-1.34 3-3S22.66 7 21 7zM3 11c-.55 0-1-.45-1-1s.45-1 1-1 1 .45 1 1-.45 1-1 1zm3 10.5c-.55 0-1-.45-1-1s.45-1 1-1 1 .45 1 1-.45 1-1 1zm5-18c0-.55.45-1 1-1s1 .45 1 1-.45 1-1 1-1-.45-1-1zm1 12a2.5 2.5 0 010-5 2.5 2.5 0 010 5zm6 4c.55 0 1 .45 1 1s-.45 1-1 1-1-.45-1-1 .45-1 1-1zm3-8.5c-.55 0-1-.45-1-1s.45-1 1-1 1 .45 1 1-.45 1-1 1z" fill="#A2A2FF"/></g><defs><clipPath id="clip0_16163_41935"><path fill="#fff" d="M0 0h24v24H0z"/></clipPath></defs></svg>

<svg width="24" height="24" viewBox="0 0 24 24" fill="none" xmlns="http://www.w3.org/2000/svg">
<g clip-path="url(#clip0_16163_41935)">
<path d="M21 7C19.34 7 18 8.34 18 10C18 10.07 18 10.14 18.01 10.21L15.98 10.89C15.34 9.68 14.16 8.8 12.76 8.57V6.41C14.04 6.07 15 4.9 15 3.5C15 1.84 13.66 0.5 12 0.5C10.34 0.5 9 1.84 9 3.5C9 4.9 9.96 6.07 11.25 6.41V8.57C9.85 8.8 8.67 9.68 8.03 10.89L5.99 10.21C6 10.14 6 10.07 6 10C6 8.34 4.66 7 3 7C1.34 7 0 8.34 0 10C0 11.66 1.34 13 3 13C4.06 13 4.98 12.45 5.52 11.63L7.55 12.31C7.35 13.6 7.72 14.97 8.64 16L7.23 17.77C6.85 17.59 6.44 17.5 6 17.5C4.34 17.5 3 18.84 3 20.5C3 22.16 4.34 23.5 6 23.5C7.66 23.5 9 22.16 9 20.5C9 19.82 8.78 19.2 8.4 18.7L9.81 16.93C11.17 17.69 12.83 17.68 14.18 16.93L15.59 18.7C15.22 19.2 15 19.82 15 20.5C15 22.16 16.34 23.5 18 23.5C19.66 23.5 21 22.16 21 20.5C21 18.84 19.66 17.5 18 17.5C17.56 17.5 17.15 17.59 16.77 17.76L15.36 15.99C16.29 14.95 16.65 13.59 16.45 12.3L18.48 11.62C19.01 12.44 19.94 12.99 21 12.99C22.66 12.99 24 11.65 24 9.99C24 8.33 22.66 7 21 7ZM3 11C2.45 11 2 10.55 2 10C2 9.45 2.45 9 3 9C3.55 9 4 9.45 4 10C4 10.55 3.55 11 3 11ZM6 21.5C5.45 21.5 5 21.05 5 20.5C5 19.95 5.45 19.5 6 19.5C6.55 19.5 7 19.95 7 20.5C7 21.05 6.55 21.5 6 21.5ZM11 3.5C11 2.95 11.45 2.5 12 2.5C12.55 2.5 13 2.95 13 3.5C13 4.05 12.55 4.5 12 4.5C11.45 4.5 11 4.05 11 3.5ZM12 15.5C10.62 15.5 9.5 14.38 9.5 13C9.5 11.62 10.62 10.5 12 10.5C13.38 10.5 14.5 11.62 14.5 13C14.5 14.38 13.38 15.5 12 15.5ZM18 19.5C18.55 19.5 19 19.95 19 20.5C19 21.05 18.55 21.5 18 21.5C17.45 21.5 17 21.05 17 20.5C17 19.95 17.45 19.5 18 19.5ZM21 11C20.45 11 20 10.55 20 10C20 9.45 20.45 9 21 9C21.55 9 22 9.45 22 10C22 10.55 21.55 11 21 11Z" fill="#A2A2FF"/>
</g>
<defs>
<clipPath id="clip0_16163_41935">
<rect width="24" height="24" fill="white"/>
</clipPath>
</defs>
</svg>
